Newaita-dark/.places-mint/24/folder-favorites.svg

<?xml version="1.0" encoding="UTF-8"?>
<svg xmlns="http://www.w3.org/2000/svg" xmlns:xlink="http://www.w3.org/1999/xlink" width="24px" height="24px" viewBox="0 0 24 24" version="1.1">
<defs>
<linearGradient id="linear0" gradientUnits="userSpaceOnUse" x1="254" y1="233.5" x2="254" y2="254.666672" gradientTransform="matrix(0.0468795,0,0,0.0468795,-0.0000028613,10.07909)">
<stop offset="0" style="stop-color:rgb(0%,0%,0%);stop-opacity:0.27451;"/>
<stop offset="1" style="stop-color:rgb(0%,0%,0%);stop-opacity:0;"/>
</linearGradient>
<radialGradient id="radial0" gradientUnits="userSpaceOnUse" cx="450.908936" cy="189.579361" fx="450.908936" fy="189.579361" r="21.166656" gradientTransform="matrix(0.000000130628,-0.0585994,-0.105479,-0.0000000761539,40.58641,47.696501)">
<stop offset="0" style="stop-color:rgb(0%,0%,0%);stop-opacity:0.313726;"/>
<stop offset="0.222222" style="stop-color:rgb(0%,0%,0%);stop-opacity:0.27451;"/>
<stop offset="1" style="stop-color:rgb(0%,0%,0%);stop-opacity:0;"/>
</radialGradient>
<radialGradient id="radial1" gradientUnits="userSpaceOnUse" cx="450.908936" cy="189.579361" fx="450.908936" fy="189.579361" r="21.166656" gradientTransform="matrix(-0.000000130628,0.0585994,0.105479,0.0000000761539,-16.771633,-5.645608)">
<stop offset="0" style="stop-color:rgb(0%,0%,0%);stop-opacity:0.313726;"/>
<stop offset="0.222222" style="stop-color:rgb(0%,0%,0%);stop-opacity:0.27451;"/>
<stop offset="1" style="stop-color:rgb(0%,0%,0%);stop-opacity:0;"/>
</radialGradient>
<radialGradient id="radial2" gradientUnits="userSpaceOnUse" cx="450.908936" cy="189.579361" fx="450.908936" fy="189.579361" r="21.166656" gradientTransform="matrix(-0.000000130628,-0.0585994,0.105479,-0.0000000761539,-16.771633,47.696501)">
<stop offset="0" style="stop-color:rgb(0%,0%,0%);stop-opacity:0.313726;"/>
<stop offset="0.222222" style="stop-color:rgb(0%,0%,0%);stop-opacity:0.27451;"/>
<stop offset="1" style="stop-color:rgb(0%,0%,0%);stop-opacity:0;"/>
</radialGradient>
<radialGradient id="radial3" gradientUnits="userSpaceOnUse" cx="450.908936" cy="189.579361" fx="450.908936" fy="189.579361" r="21.166656" gradientTransform="matrix(0.000000130628,0.0585994,-0.105479,0.0000000761539,40.586408,-5.645608)">
<stop offset="0" style="stop-color:rgb(0%,0%,0%);stop-opacity:0.313726;"/>
<stop offset="0.222222" style="stop-color:rgb(0%,0%,0%);stop-opacity:0.27451;"/>
<stop offset="1" style="stop-color:rgb(0%,0%,0%);stop-opacity:0;"/>
</radialGradient>
<linearGradient id="linear1" gradientUnits="userSpaceOnUse" x1="254" y1="-147.5" x2="254" y2="-31.083334" gradientTransform="matrix(0.0468795,0,0,0.0468795,0.000000937315,10.079086)">
<stop offset="0" style="stop-color:rgb(64.313728%,64.313728%,64.313728%);stop-opacity:0;"/>
<stop offset="1" style="stop-color:rgb(100%,100%,100%);stop-opacity:0.196078;"/>
</linearGradient>
<linearGradient id="linear2" gradientUnits="userSpaceOnUse" x1="254" y1="233.5" x2="254" y2="-105.166656" gradientTransform="matrix(0.0468795,0,0,0.0468795,-0.0000013593,10.079087)">
<stop offset="0" style="stop-color:rgb(34.509805%,34.509805%,34.509805%);stop-opacity:0;"/>
<stop offset="1" style="stop-color:rgb(98.039216%,98.039216%,98.039216%);stop-opacity:0.196078;"/>
</linearGradient>
</defs>
<g id="surface1">
<path style=" stroke:none;fill-rule:nonzero;fill:url(#linear0);" d="M 2.976562 21.027344 L 20.839844 21.027344 L 20.839844 22.019531 L 2.976562 22.019531 Z M 2.976562 21.027344 "/>
<path style=" stroke:none;fill-rule:nonzero;fill:url(#radial0);" d="M 20.839844 21.027344 L 22.824219 21.027344 L 22.824219 20.03125 L 20.839844 20.03125 Z M 20.839844 21.027344 "/>
<path style=" stroke:none;fill-rule:nonzero;fill:url(#radial1);" d="M 2.976562 21.027344 L 0.992188 21.027344 L 0.992188 22.019531 L 2.976562 22.019531 Z M 2.976562 21.027344 "/>
<path style=" stroke:none;fill-rule:nonzero;fill:url(#radial2);" d="M 2.976562 21.027344 L 0.992188 21.027344 L 0.992188 20.03125 L 2.976562 20.03125 Z M 2.976562 21.027344 "/>
<path style=" stroke:none;fill-rule:nonzero;fill:url(#radial3);" d="M 20.839844 21.027344 L 22.824219 21.027344 L 22.824219 22.019531 L 20.839844 22.019531 Z M 20.839844 21.027344 "/>
<path style=" stroke:none;fill-rule:nonzero;fill:rgb(61.176473%,80.000001%,39.607844%);fill-opacity:1;" d="M 5.457031 3.164062 L 21.582031 3.164062 C 22.128906 3.164062 22.574219 3.609375 22.574219 4.15625 L 22.574219 7.878906 C 22.574219 8.425781 22.128906 8.871094 21.582031 8.871094 L 5.457031 8.871094 C 4.910156 8.871094 4.464844 8.425781 4.464844 7.878906 L 4.464844 4.15625 C 4.464844 3.609375 4.910156 3.164062 5.457031 3.164062 Z M 5.457031 3.164062 "/>
<path style=" stroke:none;fill-rule:nonzero;fill:url(#linear1);" d="M 5.457031 3.164062 L 21.582031 3.164062 C 22.128906 3.164062 22.574219 3.609375 22.574219 4.15625 L 22.574219 7.878906 C 22.574219 8.425781 22.128906 8.871094 21.582031 8.871094 L 5.457031 8.871094 C 4.910156 8.871094 4.464844 8.425781 4.464844 7.878906 L 4.464844 4.15625 C 4.464844 3.609375 4.910156 3.164062 5.457031 3.164062 Z M 5.457031 3.164062 "/>
<path style=" stroke:none;fill-rule:nonzero;fill:rgb(90.196079%,90.196079%,90.196079%);fill-opacity:0.392157;" d="M 5.457031 3.230469 C 4.90625 3.230469 4.464844 3.671875 4.464844 4.222656 L 4.464844 4.347656 C 4.464844 3.796875 4.90625 3.351562 5.457031 3.351562 L 21.582031 3.351562 C 22.132812 3.351562 22.574219 3.796875 22.574219 4.347656 L 22.574219 4.222656 C 22.574219 3.671875 22.132812 3.230469 21.582031 3.230469 Z M 5.457031 3.230469 "/>
<path style=" stroke:none;fill-rule:nonzero;fill:rgb(12.941177%,12.941177%,12.941177%);fill-opacity:1;" d="M 5.457031 3.09375 C 4.871094 3.09375 4.394531 3.570312 4.394531 4.15625 L 4.394531 7.878906 C 4.394531 8.464844 4.871094 8.941406 5.457031 8.941406 L 21.582031 8.941406 C 22.167969 8.941406 22.644531 8.464844 22.644531 7.878906 L 22.644531 4.15625 C 22.644531 3.570312 22.167969 3.09375 21.582031 3.09375 Z M 5.457031 3.234375 L 21.582031 3.234375 C 22.09375 3.234375 22.503906 3.644531 22.503906 4.15625 L 22.503906 7.878906 C 22.503906 8.390625 22.09375 8.800781 21.582031 8.800781 L 5.457031 8.800781 C 4.945312 8.800781 4.535156 8.390625 4.535156 7.878906 L 4.535156 4.15625 C 4.535156 3.644531 4.945312 3.234375 5.457031 3.234375 Z M 5.457031 3.234375 "/>
<path style=" stroke:none;fill-rule:nonzero;fill:rgb(68.235296%,83.529413%,50.588238%);fill-opacity:1;" d="M 1.984375 5.148438 C 1.433594 5.148438 0.992188 5.589844 0.992188 6.140625 L 0.992188 20.03125 C 0.992188 20.582031 1.433594 21.027344 1.984375 21.027344 L 21.832031 21.027344 C 22.378906 21.027344 22.824219 20.582031 22.824219 20.03125 L 22.824219 7.628906 L 9.425781 7.628906 C 8.878906 7.628906 8.433594 7.1875 8.433594 6.636719 L 8.433594 5.148438 Z M 1.984375 5.148438 "/>
<path style=" stroke:none;fill-rule:nonzero;fill:url(#linear2);" d="M 1.984375 5.148438 C 1.433594 5.148438 0.992188 5.589844 0.992188 6.140625 L 0.992188 20.03125 C 0.992188 20.582031 1.433594 21.027344 1.984375 21.027344 L 21.832031 21.027344 C 22.378906 21.027344 22.824219 20.582031 22.824219 20.03125 L 22.824219 7.628906 L 9.425781 7.628906 C 8.878906 7.628906 8.433594 7.1875 8.433594 6.636719 L 8.433594 5.148438 Z M 1.984375 5.148438 "/>
<path style=" stroke:none;fill-rule:nonzero;fill:rgb(0%,0%,0%);fill-opacity:0.196078;" d="M 1.984375 21.027344 C 1.433594 21.027344 0.992188 20.582031 0.992188 20.03125 L 0.992188 19.910156 C 0.992188 20.457031 1.433594 20.902344 1.984375 20.902344 L 21.832031 20.902344 C 22.378906 20.902344 22.824219 20.457031 22.824219 19.910156 L 22.824219 20.03125 C 22.824219 20.582031 22.378906 21.027344 21.832031 21.027344 Z M 1.984375 21.027344 "/>
<path style=" stroke:none;fill-rule:nonzero;fill:rgb(90.196079%,90.196079%,90.196079%);fill-opacity:0.392157;" d="M 1.984375 5.210938 C 1.433594 5.210938 0.992188 5.652344 0.992188 6.203125 L 0.992188 6.328125 C 0.992188 5.777344 1.433594 5.335938 1.984375 5.335938 L 8.433594 5.335938 L 8.433594 5.210938 Z M 1.984375 5.210938 "/>
<path style=" stroke:none;fill-rule:nonzero;fill:rgb(90.196079%,90.196079%,90.196079%);fill-opacity:0.392157;" d="M 9.363281 7.753906 C 8.816406 7.753906 8.371094 7.3125 8.371094 6.761719 L 8.371094 6.636719 C 8.371094 7.1875 8.816406 7.628906 9.363281 7.628906 L 22.824219 7.628906 L 22.824219 7.753906 Z M 9.363281 7.753906 "/>
<path style=" stroke:none;fill-rule:nonzero;fill:rgb(12.941177%,12.941177%,12.941177%);fill-opacity:1;" d="M 1.984375 5.078125 C 1.398438 5.078125 0.921875 5.554688 0.921875 6.140625 L 0.921875 20.03125 C 0.921875 20.621094 1.398438 21.097656 1.984375 21.097656 L 21.832031 21.097656 C 22.417969 21.097656 22.894531 20.621094 22.894531 20.03125 L 22.894531 7.488281 L 9.425781 7.488281 C 8.914062 7.488281 8.503906 7.078125 8.503906 6.566406 L 8.503906 5.078125 Z M 1.984375 5.21875 L 8.363281 5.21875 L 8.363281 6.566406 C 8.363281 7.15625 8.839844 7.628906 9.425781 7.628906 L 22.753906 7.628906 L 22.753906 20.03125 C 22.753906 20.546875 22.34375 20.957031 21.832031 20.957031 L 1.984375 20.957031 C 1.472656 20.957031 1.0625 20.546875 1.0625 20.03125 L 1.0625 6.140625 C 1.0625 5.628906 1.472656 5.21875 1.984375 5.21875 Z M 1.984375 5.21875 "/>
<path style=" stroke:none;fill-rule:nonzero;fill:rgb(54.509807%,76.47059%,29.019609%);fill-opacity:1;" d="M 11.90625 9.792969 C 12.378906 9.792969 12.789062 11.992188 13.171875 12.269531 C 13.554688 12.546875 15.773438 12.257812 15.917969 12.707031 C 16.0625 13.15625 14.097656 14.222656 13.953125 14.675781 C 13.808594 15.125 14.769531 17.144531 14.386719 17.421875 C 14.003906 17.699219 12.378906 16.160156 11.90625 16.160156 C 11.433594 16.160156 9.8125 17.699219 9.429688 17.421875 C 9.046875 17.144531 10.007812 15.125 9.863281 14.675781 C 9.714844 14.222656 7.75 13.15625 7.898438 12.707031 C 8.042969 12.257812 10.261719 12.546875 10.644531 12.269531 C 11.023438 11.992188 11.433594 9.792969 11.90625 9.792969 Z M 11.90625 9.792969 "/>
<path style=" stroke:none;fill-rule:nonzero;fill:rgb(0%,0%,0%);fill-opacity:0.235294;" d="M 11.90625 9.792969 C 11.433594 9.792969 11.023438 11.992188 10.644531 12.269531 C 10.261719 12.546875 8.042969 12.257812 7.898438 12.707031 C 7.882812 12.753906 7.890625 12.804688 7.914062 12.863281 C 8.167969 12.46875 10.273438 12.734375 10.644531 12.464844 C 11.023438 12.183594 11.433594 9.984375 11.90625 9.984375 C 12.378906 9.984375 12.789062 12.183594 13.171875 12.464844 C 13.542969 12.734375 15.644531 12.46875 15.898438 12.863281 C 15.925781 12.804688 15.933594 12.753906 15.917969 12.707031 C 15.773438 12.257812 13.554688 12.546875 13.171875 12.269531 C 12.789062 11.992188 12.378906 9.792969 11.90625 9.792969 Z M 13.945312 14.902344 C 13.871094 15.300781 14.414062 16.574219 14.472656 17.238281 C 14.53125 16.738281 14.011719 15.492188 13.945312 14.902344 Z M 9.871094 14.902344 C 9.804688 15.492188 9.28125 16.738281 9.34375 17.238281 C 9.402344 16.578125 9.941406 15.304688 9.871094 14.902344 Z M 9.871094 14.902344 "/>
<path style=" stroke:none;fill-rule:nonzero;fill:rgb(100%,100%,100%);fill-opacity:0.392157;" d="M 15.898438 12.863281 C 15.679688 13.367188 14.085938 14.269531 13.953125 14.675781 C 13.933594 14.730469 13.933594 14.808594 13.945312 14.902344 C 13.945312 14.890625 13.949219 14.878906 13.953125 14.867188 C 14.097656 14.417969 16.0625 13.351562 15.917969 12.898438 C 15.914062 12.886719 15.90625 12.875 15.898438 12.863281 Z M 7.914062 12.863281 C 7.90625 12.875 7.902344 12.886719 7.898438 12.898438 C 7.75 13.351562 9.714844 14.417969 9.863281 14.867188 C 9.863281 14.878906 9.867188 14.890625 9.871094 14.902344 C 9.878906 14.808594 9.878906 14.730469 9.863281 14.675781 C 9.730469 14.269531 8.136719 13.367188 7.914062 12.863281 Z M 11.90625 16.160156 C 11.433594 16.160156 9.8125 17.699219 9.429688 17.421875 C 9.378906 17.386719 9.351562 17.324219 9.34375 17.238281 C 9.328125 17.421875 9.347656 17.558594 9.429688 17.617188 C 9.8125 17.894531 11.433594 16.355469 11.90625 16.355469 C 12.378906 16.355469 14.003906 17.894531 14.386719 17.617188 C 14.464844 17.558594 14.488281 17.421875 14.472656 17.238281 C 14.460938 17.324219 14.433594 17.386719 14.386719 17.421875 C 14.003906 17.699219 12.378906 16.160156 11.90625 16.160156 Z M 11.90625 16.160156 "/>
<path style="fill:none;stroke-width:3;stroke-linecap:round;stroke-linejoin:miter;stroke:rgb(12.941177%,12.941177%,12.941177%);stroke-opacity:1;stroke-miterlimit:4;" d="M 253.975747 -6.103282 C 264.058117 -6.103282 272.807282 40.808905 280.973168 46.725007 C 289.139055 52.641108 336.467869 46.47503 339.550908 56.057449 C 342.633947 65.639867 300.721283 88.387695 297.638244 98.053438 C 294.555205 107.635856 315.053247 150.715076 306.88736 156.631178 C 298.721474 162.547279 264.058117 129.717081 253.975747 129.717081 C 243.893376 129.717081 209.313345 162.547279 201.147458 156.631178 C 192.981571 150.715076 213.479614 107.635856 210.396575 98.053438 C 207.230211 88.387695 165.317546 65.639867 168.483911 56.057449 C 171.56695 46.47503 218.895763 52.641108 227.06165 46.725007 C 235.144212 40.808905 243.893376 -6.103282 253.975747 -6.103282 Z M 253.975747 -6.103282 " transform="matrix(0.0468795,0,0,0.0468795,0,10.079087)"/>
</g>
</svg>

<svg xmlns="http://www.w3.org/2000/svg" width="24" height="24"><defs><linearGradient id="a" gradientUnits="userSpaceOnUse" x1="254" y1="233.5" x2="254" y2="254.667" gradientTransform="matrix(.04688 0 0 .04688 0 10.08)"><stop offset="0" stop-opacity=".275"/><stop offset="1" stop-opacity="0"/></linearGradient><radialGradient id="b" gradientUnits="userSpaceOnUse" cx="450.909" cy="189.579" fx="450.909" fy="189.579" r="21.167" gradientTransform="matrix(0 -.0586 -.10548 0 40.586 47.697)"><stop offset="0" stop-opacity=".314"/><stop offset=".222" stop-opacity=".275"/><stop offset="1" stop-opacity="0"/></radialGradient><radialGradient id="c" gradientUnits="userSpaceOnUse" cx="450.909" cy="189.579" fx="450.909" fy="189.579" r="21.167" gradientTransform="matrix(0 .0586 .10548 0 -16.772 -5.646)"><stop offset="0" stop-opacity=".314"/><stop offset=".222" stop-opacity=".275"/><stop offset="1" stop-opacity="0"/></radialGradient><radialGradient id="d" gradientUnits="userSpaceOnUse" cx="450.909" cy="189.579" fx="450.909" fy="189.579" r="21.167" gradientTransform="matrix(0 -.0586 .10548 0 -16.772 47.697)"><stop offset="0" stop-opacity=".314"/><stop offset=".222" stop-opacity=".275"/><stop offset="1" stop-opacity="0"/></radialGradient><radialGradient id="e" gradientUnits="userSpaceOnUse" cx="450.909" cy="189.579" fx="450.909" fy="189.579" r="21.167" gradientTransform="matrix(0 .0586 -.10548 0 40.586 -5.646)"><stop offset="0" stop-opacity=".314"/><stop offset=".222" stop-opacity=".275"/><stop offset="1" stop-opacity="0"/></radialGradient><linearGradient id="f" gradientUnits="userSpaceOnUse" x1="254" y1="-147.5" x2="254" y2="-31.083" gradientTransform="matrix(.04688 0 0 .04688 0 10.08)"><stop offset="0" stop-color="#a4a4a4" stop-opacity="0"/><stop offset="1" stop-color="#fff" stop-opacity=".196"/></linearGradient><linearGradient id="g" gradientUnits="userSpaceOnUse" x1="254" y1="233.5" x2="254" y2="-105.167" gradientTransform="matrix(.04688 0 0 .04688 0 10.08)"><stop offset="0" stop-color="#585858" stop-opacity="0"/><stop offset="1" stop-color="#fafafa" stop-opacity=".196"/></linearGradient><linearGradient id="h" gradientUnits="userSpaceOnUse" x1="254" y1="-147.5" x2="254" y2="233.5" gradientTransform="matrix(.04688 0 0 .04688 0 10.08)"><stop offset="0" stop-color="#a4a4a4" stop-opacity="0"/><stop offset="1" stop-color="#fff" stop-opacity=".196"/></linearGradient></defs><path d="M2.977 21.027H20.84v.993H2.977zm0 0" fill="url(#a)"/><path d="M20.84 21.027h1.984v-.996H20.84zm0 0" fill="url(#b)"/><path d="M2.977 21.027H.992v.993h1.985zm0 0" fill="url(#c)"/><path d="M2.977 21.027H.992v-.996h1.985zm0 0" fill="url(#d)"/><path d="M20.84 21.027h1.984v.993H20.84zm0 0" fill="url(#e)"/><path d="M5.457 3.164h16.125c.547 0 .992.445.992.992V7.88a.994.994 0 0 1-.992.992H5.457a.994.994 0 0 1-.992-.992V4.156c0-.547.445-.992.992-.992zm0 0" fill="#7cb342"/><path d="M5.457 3.164h16.125c.547 0 .992.445.992.992V7.88a.994.994 0 0 1-.992.992H5.457a.994.994 0 0 1-.992-.992V4.156c0-.547.445-.992.992-.992zm0 0" fill="url(#f)"/><path d="M5.457 3.164a.989.989 0 0 0-.992.992v.125c0-.55.441-.992.992-.992h16.125c.55 0 .992.441.992.992v-.125a.989.989 0 0 0-.992-.992zm0 0" fill="#e6e6e6" fill-opacity=".588"/><path d="M5.457 3.094c-.586 0-1.062.476-1.062 1.062V7.88c0 .586.476 1.062 1.062 1.062h16.125c.586 0 1.063-.476 1.063-1.062V4.156c0-.586-.477-1.062-1.063-1.062zm0 .14h16.125c.512 0 .922.41.922.922V7.88c0 .512-.41.922-.922.922H5.457a.919.919 0 0 1-.922-.922V4.156c0-.511.41-.922.922-.922zm0 0" fill="#212121"/><path d="M1.984 5.148a.989.989 0 0 0-.992.993v13.89c0 .551.442.996.992.996h19.848a.994.994 0 0 0 .992-.996V7.63H9.426a.991.991 0 0 1-.992-.992V5.148zm0 0" fill="#9ccc65"/><path d="M1.984 5.148a.989.989 0 0 0-.992.993v13.89c0 .551.442.996.992.996h19.848a.994.994 0 0 0 .992-.996V7.63H9.426a.991.991 0 0 1-.992-.992V5.148zm0 0" fill="url(#g)"/><path d="M1.984 21.027a.992.992 0 0 1-.992-.996v-.12c0 .546.442.991.992.991h19.848a.994.994 0 0 0 .992-.992v.121c0 .551-.445.996-.992.996zm0 0" fill-opacity=".196"/><path d="M1.984 5.148a.989.989 0 0 0-.992.993v.125c0-.551.442-.993.992-.993h6.45v-.125zm0 0M9.363 7.691a.991.991 0 0 1-.992-.992v-.125c0 .551.445.996.992.992h13.461v.125zm0 0" fill="#e6e6e6" fill-opacity=".937"/><path d="M1.984 5.078c-.586 0-1.062.477-1.062 1.063v13.89c0 .59.476 1.067 1.062 1.067h19.848c.586 0 1.063-.477 1.063-1.067V7.488H9.425a.919.919 0 0 1-.921-.922V5.078zm0 .14h6.38v1.348c0 .59.476 1.063 1.062 1.063h13.328V20.03a.92.92 0 0 1-.922.926H1.984a.92.92 0 0 1-.921-.926V6.141c0-.512.41-.922.921-.922zm0 0" fill="#212121"/><path d="M11.906 9.793c.473 0 .883 2.2 1.266 2.477.383.277 2.601-.012 2.746.437.145.45-1.82 1.516-1.965 1.969-.144.449.817 2.469.434 2.746-.383.277-2.008-1.262-2.48-1.262-.473 0-2.095 1.54-2.477 1.262-.383-.277.578-2.297.433-2.746-.148-.453-2.113-1.52-1.965-1.969.145-.45 2.364-.16 2.747-.437.378-.278.789-2.477 1.261-2.477zm0 0" fill="#7cb342"/><path d="M11.906 9.793c.473 0 .883 2.2 1.266 2.477.383.277 2.601-.012 2.746.437.145.45-1.82 1.516-1.965 1.969-.144.449.817 2.469.434 2.746-.383.277-2.008-1.262-2.48-1.262-.473 0-2.095 1.54-2.477 1.262-.383-.277.578-2.297.433-2.746-.148-.453-2.113-1.52-1.965-1.969.145-.45 2.364-.16 2.747-.437.378-.278.789-2.477 1.261-2.477zm0 0" fill="url(#h)"/><path d="M11.906 9.723c-.086 0-.16.047-.222.117-.067.066-.125.16-.184.265a6.991 6.991 0 0 0-.324.797c-.106.293-.207.594-.305.836s-.203.426-.27.473c-.066.047-.273.09-.535.11-.257.019-.578.023-.886.03a6.754 6.754 0 0 0-.86.067c-.12.02-.226.047-.308.09-.086.039-.157.094-.184.176-.023.082 0 .168.043.25.047.082.113.168.2.254.171.175.41.367.656.558.246.191.5.379.699.547.199.168.344.328.367.402.027.078.004.29-.059.543-.062.254-.16.555-.246.856a6.71 6.71 0 0 0-.203.832c-.015.125-.023.23-.012.324.012.094.043.176.114.227.07.05.16.054.25.039.093-.016.195-.059.304-.114.22-.105.477-.273.73-.449.259-.176.52-.36.74-.496.222-.14.417-.227.495-.227.082 0 .274.086.496.227.223.137.48.32.739.496a6.2 6.2 0 0 0 .73.45c.113.054.211.097.305.113.094.015.183.011.25-.04.07-.05.101-.132.117-.226.012-.094.004-.2-.016-.324a6.076 6.076 0 0 0-.203-.832c-.086-.301-.18-.602-.242-.856s-.086-.465-.062-.543c.023-.074.168-.234.367-.402.199-.168.457-.355.703-.547.246-.191.484-.383.652-.559.086-.085.156-.171.2-.253.046-.082.07-.168.042-.25-.027-.082-.093-.137-.18-.176a1.095 1.095 0 0 0-.312-.09 6.747 6.747 0 0 0-.855-.066c-.313-.008-.63-.012-.89-.032-.263-.02-.47-.062-.532-.11-.067-.046-.172-.23-.27-.472-.097-.242-.199-.543-.304-.836a6.96 6.96 0 0 0-.329-.797 1.209 1.209 0 0 0-.18-.265.31.31 0 0 0-.226-.117zm0 .14c.031 0 .074.02.125.07.051.055.102.137.156.239.11.203.215.488.32.777.106.293.208.594.306.84.101.25.19.445.316.535.129.094.34.117.61.137.265.02.581.023.894.031.308.012.61.024.836.063.113.02.21.047.273.078.067.031.098.066.11.094.007.03.003.078-.032.14a1.23 1.23 0 0 1-.175.223 6.58 6.58 0 0 1-.641.543c-.246.191-.5.379-.707.555-.203.171-.363.316-.41.464-.047.149-.008.36.058.618.063.261.16.566.246.863.086.297.164.586.2.816.015.113.02.211.011.285-.011.07-.03.11-.058.13-.024.019-.07.027-.14.015a1.253 1.253 0 0 1-.27-.102 6.424 6.424 0 0 1-.715-.441c-.254-.172-.516-.36-.742-.5-.227-.14-.415-.246-.57-.246-.157 0-.34.105-.571.246-.227.14-.484.328-.742.5-.254.176-.508.34-.715.441-.102.051-.195.086-.266.102-.074.012-.117.004-.144-.016-.024-.02-.047-.058-.055-.129a1.049 1.049 0 0 1 .012-.285c.031-.23.11-.52.199-.816.086-.297.18-.602.246-.863.063-.258.106-.47.059-.618-.051-.148-.207-.293-.414-.464-.204-.176-.457-.364-.704-.555a5.76 5.76 0 0 1-.64-.543 1.076 1.076 0 0 1-.176-.223c-.035-.062-.043-.11-.031-.14.008-.028.039-.063.105-.094.067-.031.16-.059.274-.078.23-.04.531-.051.84-.063.308-.008.629-.012.894-.031.266-.02.48-.043.606-.137.129-.09.214-.285.316-.535.102-.246.203-.547.309-.84.101-.289.21-.574.316-.777a1.19 1.19 0 0 1 .16-.238c.05-.051.09-.07.121-.07zm0 0" fill="#212121"/></svg>
